build/img/inst-icon.svg

<svg width="18" height="18" viewBox="0 0 18 18" fill="none" xmlns="http://www.w3.org/2000/svg">
<path fill-rule="evenodd" clip-rule="evenodd" d="M0.285645 4C0.285645 1.79086 2.07651 0 4.28565 0H13.4285C15.6376 0 17.4285 1.79086 17.4285 4V13.1429C17.4285 15.352 15.6376 17.1429 13.4285 17.1429H4.28564C2.0765 17.1429 0.285645 15.352 0.285645 13.1429V4ZM14.4182 4.00003C14.4182 4.63122 13.9065 5.14289 13.2753 5.14289C12.6441 5.14289 12.1324 4.63122 12.1324 4.00003C12.1324 3.36885 12.6441 2.85718 13.2753 2.85718C13.9065 2.85718 14.4182 3.36885 14.4182 4.00003ZM11.1426 8.56224C11.1426 9.8246 10.1193 10.8479 8.85691 10.8479C7.59454 10.8479 6.57119 9.8246 6.57119 8.56224C6.57119 7.29987 7.59454 6.27652 8.85691 6.27652C10.1193 6.27652 11.1426 7.29987 11.1426 8.56224ZM13.1426 8.56224C13.1426 10.9292 11.2238 12.8479 8.85691 12.8479C6.48997 12.8479 4.57119 10.9292 4.57119 8.56224C4.57119 6.1953 6.48997 4.27652 8.85691 4.27652C11.2238 4.27652 13.1426 6.1953 13.1426 8.56224Z" fill="#6A6454"/>
</svg>

<svg width="18" height="18" fill="none" xmlns="http://www.w3.org/2000/svg"><path fill-rule="evenodd" clip-rule="evenodd" d="M.286 4a4 4 0 014-4h9.143a4 4 0 014 4v9.143a4 4 0 01-4 4H4.285a4 4 0 01-4-4V4zm14.132 0a1.143 1.143 0 11-2.286 0 1.143 1.143 0 012.286 0zm-3.275 4.562a2.286 2.286 0 11-4.572 0 2.286 2.286 0 014.572 0zm2 0a4.286 4.286 0 11-8.572 0 4.286 4.286 0 018.572 0z" fill="#6A6454"/></svg>
